svg/qt.svg

<svg viewBox="0 0 20 20" xmlns="http://www.w3.org/2000/svg">
<rect width="100%" height="100%" fill="#41CD52"/>
<path fill-rule="evenodd" clip-rule="evenodd" d="M7.24208 4.00852C6.32677 3.95199 5.41596 4.1776 4.62482 4.65686C4.00318 5.13892 3.55881 5.82619 3.36603 6.60497C3.09278 7.60766 2.97107 8.64808 3.00579 9.68924C2.99353 10.6529 3.12587 11.6126 3.39829 12.5342C3.5004 12.8816 3.65683 13.2079 3.85941 13.501C3.97664 13.6703 4.10938 13.8286 4.25601 13.9733C4.82781 14.4426 5.52215 14.7253 6.24958 14.7853C6.55999 14.8247 6.87285 14.8411 7.18489 14.8346C7.47325 14.8287 7.7612 14.8031 8.0471 14.758L9.35899 17L10.8988 16.2668C10.492 15.5791 10.0733 14.9004 9.66614 14.2157C10.2359 13.7891 10.6635 13.1899 10.8902 12.5009C11.1855 11.4839 11.315 10.4231 11.2737 9.36203C11.2884 8.30767 11.1251 7.25874 10.7906 6.2626C10.5884 5.64455 10.2134 5.10252 9.71311 4.70536C8.97792 4.2168 8.11531 3.97355 7.24208 4.00852ZM8.12021 5.6688C7.62029 5.48102 7.08197 5.42882 6.55713 5.51732C6.14134 5.56022 5.75088 5.74456 5.44741 6.04149C5.13863 6.42005 4.93074 6.87532 4.84415 7.36246C4.59787 8.62853 4.59011 9.93191 4.82087 11.2011C4.87887 11.6042 4.99119 11.9969 5.15456 12.3676C5.29915 12.6766 5.53359 12.931 5.82521 13.0947C6.33045 13.3368 6.89082 13.4291 7.44425 13.3613C7.97726 13.3482 8.48413 13.1186 8.85539 12.722C9.16948 12.279 9.36022 11.7549 9.40556 11.2072C9.51583 10.3181 9.5383 9.41968 9.47295 8.52587C9.4415 7.84917 9.29487 7.18351 9.0396 6.55959C8.85499 6.1517 8.52579 5.83279 8.12021 5.6688Z" fill="white"/>
<path d="M14.9448 4.62352H13.3318V6.8292H12.2074V8.26223H13.3229V11.8313C13.2963 12.4962 13.396 13.1601 13.6157 13.7855C13.6929 13.9597 13.8069 14.1138 13.9494 14.2364C14.0364 14.3114 14.1324 14.3734 14.2349 14.4211C14.3002 14.4515 14.3685 14.4761 14.4383 14.4944C15.2331 14.7562 16.068 14.611 16.8718 14.4712L17 14.449L16.9587 13.7118L16.924 13.131C16.7558 13.1347 16.5871 13.1412 16.418 13.1477C16.1639 13.1576 15.9095 13.1674 15.6562 13.1674C15.5386 13.1784 15.4202 13.156 15.314 13.1026C15.2078 13.0492 15.1175 12.9669 15.053 12.8644C14.9403 12.5499 14.8904 12.2149 14.9068 11.8798V8.26223H16.9563C16.9706 7.78355 16.9943 7.30788 16.9943 6.8292H14.9448V4.62352Z" fill="white"/>
</svg>

<svg xmlns="http://www.w3.org/2000/svg" viewBox="0 0 20 20">
  <rect width="100%" height="100%" fill="#41CD52"/>
  <path fill="#fff" fill-rule="evenodd" d="M7.24 4a4.51 4.51 0 0 0-2.62.66A3.54 3.54 0 0 0 3.37 6.6c-.28 1-.4 2.05-.36 3.09a9.6 9.6 0 0 0 .39 2.84 3.37 3.37 0 0 0 .86 1.44c.57.47 1.26.76 1.99.82a6.38 6.38 0 0 0 1.8-.03L9.35 17l1.55-.73c-.4-.7-.83-1.37-1.23-2.05a3.5 3.5 0 0 0 1.22-1.72c.3-1.02.42-2.08.38-3.14a9.33 9.33 0 0 0-.48-3.1 3.3 3.3 0 0 0-1.08-1.55A4.16 4.16 0 0 0 7.24 4Zm.88 1.67a3.02 3.02 0 0 0-1.56-.15c-.42.04-.8.22-1.11.52-.31.38-.52.84-.6 1.32a10.39 10.39 0 0 0-.03 3.84c.06.4.17.8.33 1.17.15.3.38.56.68.72.5.25 1.06.34 1.61.27a2 2 0 0 0 1.42-.64c.3-.44.5-.97.55-1.51.1-.9.13-1.79.06-2.68a5.92 5.92 0 0 0-.43-1.97c-.19-.4-.51-.73-.92-.9Z" clip-rule="evenodd"/>
  <path fill="#fff" d="M14.94 4.62h-1.6v2.2H12.2v1.44h1.11v3.57c-.02.67.08 1.33.3 1.96a1.28 1.28 0 0 0 .82.7 5 5 0 0 0 2.43-.02l.13-.02-.04-.74-.04-.58-.5.02-.76.02a.63.63 0 0 1-.35-.07.66.66 0 0 1-.26-.24 2.55 2.55 0 0 1-.14-.98V8.26h2.05c.01-.48.03-.95.03-1.43h-2.05v-2.2Z"/>
</svg>
